!!!COM: Robert Schumann
!!!OTL: Dichterliebe, Op.48
!!!OMV: Wenn ich in deine Augen seh'
**kern	**dynam
*I"Voice	*
*clefG2	*
*k[f#]	*
*M3/4	*
=1	=1
!LO:TX:a:B:t=Langsam.	!
[8GL [8B [8d [8g [8b	.
!	!LO:DY:a
8GJ_ 8B_ 8d_ 8g_ 8b_	p
8GL_ 8B_ 8d_ 8g_ 8b_	.
8GJ_ 8B_ 8d_ 8g_ 8b_	.
8.GL_ 8.B_ 8.d_ 8.g_ 8.b_	.
16GJk_ 16B_ 16d_ 16g_ 16b_	.
=2	=2
8GL] 8B] 8d] 8g] 8b] [8dd	.
[16GL [16B [16d [16g [16b 16dd]	.
16GJJ] 16B] 16d] 16g] 16b]	.
8GL 8B 8d 8g [8b	.
8GJ 8B 8d 8g 8b]	.
[8BL [8d [8g [8dd	.
16BL] 16d] 16g_ 16dd]	.
16EJJ 16B 16e 16g]	.
=3	=3
[8.EL [8.B [8.e [8.g	.
16EJk] 16B] 16e] 16g]	.
8gL	.
8gJ	.
8AAL 8A 8e 8a 8cc	.
8ccJ	.
=4	=4
8DL 8d 8f# [8a	.
16aL_	.
16AJJ 16c 16e 16a] 16cc	.
8AL 8c 8e 8a 8cc	.
8AJ 8c 8e 8a 8cc	.
8AL 8c 8e 8a 8cc	.
8AJ 8c 8e 8a 8cc	.
=5	=5
[8.cL [8.e [8.a 8.cc [8.ee	.
16cJk_ 16e] 16a] 16cc 16ee]	.
[8AL 8c_ [8e [8a [8cc	.
8AJ] 8c] 8e] 8a] 8cc]	.
[8B-XL [8c [8e [8g [8cc [8ee	.
16B-L_ 16c_ 16e_ 16g_ 16cc_ 16dd 16ee_	.
16B-JJ] 16c] 16e] 16g] 16cc] 16ee]	.
=6	=6
4.A 4.c 4.fn 4.cc 4.ffn	.
8A [8c 8fn 8cc 8ff	.
8GL 8c] 8g 8cc 8ee	.
8FnJ 8c 8a 8cc 8dd	.
=7	=7
8.EL 8.c 8.g 8.cc 8.gg	.
16FnJk 16c 16a 16cc 16dd 16ffn	.
[4G 4c 4g 4cc [4ee	.
8GL_ [8Bn [8fn [8g 8ee]	.
8GJ] 8B] 8f] 8g] 8dd	.
=8	=8
8CL 8G 8e [8cc	.
16ccL_	.
16cJJ 16e 16g 16cc] 16ee	.
8cL 8e 8g 8ee [8gg	.
8cJ 8e 8g 8ee 8gg]	.
8cL 8e [8a 8ee [8aa	.
8cJ 8e 8a] 8ee 8aa]	.
=9	=9
[8.BL [8.f# [8.b [8.dd#X [8.bb	.
16BJk_ 16f#_ 16b_ 16dd#_ 16bb_	.
8.BL_ 8.f#_ 8.b_ 8.dd#_ 8.bb_	.
16BJk_ 16f#_ 16b_ 16dd#_ 16bb_	.
8BL_ 8f#_ 8g 8b_ 8dd#_ 8bb_	.
8BJ_ 8f#_ 8a 8b_ 8dd#_ 8bb_	.
=10	=10
8.BL] 8.f#] [8.g 8.b] 8.dd#X] 8.bb_	.
16eJk 16g] 16b 16ee 16bb]	.
8eL 8g 8b 8ee [8gg	.
8eJ 8g 8b 8ee 8gg]	.
8AL 8e 8a [8cc 8ee [8ccc	.
8AJ 8e 8a 8cc] 8ee 8ccc]	.
=11	=11
[8.BL [8.d#X [8.f# [8.a [8.b [8.dd#X [8.bb	.
16BJk_ 16d#_ 16f#_ 16a_ 16b_ 16dd#_ 16bb_	.
8BL_ 8d#_ 8f#_ 8a_ 8b_ 8dd#_ 8bb_	.
8BJ_ 8d#_ 8f#_ 8a_ 8b_ 8dd#_ 8bb_	.
16BKL_ 16d#_ 16f#_ 16a_ 16b_ 16dd#_ 16bb_	.
8B_ 8d#_ 8f#_ 8g 8a_ 8b_ 8dd#_ 8bb_	.
16BJk_ 16d#_ 16f#_ 16a_ 16b_ 16dd#_ 16bb_	.
=12	=12
8.BL] 8.d#X] 8.f#] [8.g 8.a] 8.b] 8.dd#X] 8.bb_	.
16eJk 16g] 16b 16ee 16gg 16bb_	.
8eL 8g 8b 8ee 8gg 8bb]	.
8e'J 8g 8b 8ee 8gg	.
8e'L 8g 8b 8ee 8gg	.
8e'J 8g 8b 8ee 8gg	.
=13	=13
[8dL [8fn [8g#X [8b [8gg#X	.
*MM78	*
!LO:TX:t=[quarter]=78	!
8dJ_ 8f_ 8g#_ 8b_ 8ffn 8gg#_	.
8dL_ 8f_ 8g#_ 8b_ 8dd 8gg#_	.
8dJ_ 8f] 8g#_ 8b_ 8gg#_	.
8dL_ 8g#_ 8b_ 8gg#_	.
8dJ] 8fn 8g#] 8b] 8gg#]	.
=14	=14
!LO:TX:a:i:t=ritard.	!
*MM76	*
!LO:TX:t=[quarter]=76	!
[8.cL [8.e [8.b [8.ee [8.bb	.
16cJk_ 16e_ 16a 16b] 16ee_ 16bb]	.
8cL] 8e] 8a 8ee] 8aa	.
8A'J 8c 8a 8cc 8ee	.
8B'L 8d 8g#X 8b 8ee	.
8c'J 8e 8a 8ee	.
=15	=15
[8c#XL [8e [8gn [8a [8ee	.
8c#J] 8e] 8g] 8a] 8ee]	.
[4d 4g [4b [4dd	.
[8DL 8d] [8f# 8b] 8dd_	.
8DJ] 8cn 8f#] 8a 8dd_	.
=16	=16
8GL 8B [8g 8dd]	.
16gL_	.
16BB'JJ 16G 16fn 16g] 16dd	.
8BB'L 8G 8fn 8g 8dd	.
8BB'J 8G 8fn 8g 8dd	.
8BB'L 8G 8fn 8g 8dd	.
8BB'J 8G 8fn 8g 8dd	.
=17	=17
[4C [4G [4e [4g 4dd	.
*MM74	*
!LO:TX:t=[quarter]=74	!
4.C_ 4.G_ 4.e_ 4.g_	.
8C] 8G_ 8e] 8g] 8cc	.
=18	=18
*MM72	*
!LO:TX:t=[quarter]=72	!
[8GGL 8G] 8d 8b	.
16GGL_	.
16GG'JJ_ 16BB 16G 16d 16fn 16g	.
8GG'L_ 8BB 8G 8d 8fn 8g	.
8GG'J_ 8BB 8G 8d 8fn 8g	.
8GG'L_ 8BB 8G 8d 8fn 8g	.
8GG'J] 8BB 8G 8d 8fn 8g	.
=19	=19
*MM70	*
!LO:TX:t=[quarter]=70	!
[4GG [4C [4G 4d [4e [4g	.
*MM67	*
!LO:TX:t=[quarter]=67	!
4.GG_ 4.C_ 4.G_ 4.e_ 4.g_	.
8GG_ 8C] 8G_ 8c 8e] 8g_	.
=20	=20
*MM64	*
!LO:TX:t=[quarter]=64	!
8.GGL] 8.D 8.G_ 8.B 8.g_	.
16GGJk 16D 16G_ 16B 16g_	.
8GGL 8D 8G_ 8B 8g_	.
*MM62	*
!LO:TX:t=[quarter]=62	!
8GGJ 8D 8G_ 8B 8g_	.
8GGL 8D 8G_ 8B 8g_	.
[8GGJ [8D 8G] [8B 8g_	.
=21	=21
2.GG] 2.BB 2.D] 2.G 2.B] 2.g]	.
==	==
*-	*-
!!!YEM: OpenScore (CC0)
